X:9
T:Simon's Fancy (Bampton) (Lemon & Capers)
T:The Forester
M:6/8
L:1/8
S:Lemon & Capers Morris
H:Dance composed by Jocelyn Reynolds in 1991.
O:England; Oxfordshire; Bampton.
R:jig
Q:3/8=104
P:A(A2B2)4
K:D
P:A
G>F | E2 B2 B>G (3AGF | E2 E2 d3 e | d3 B A3 F | E2 E2 E2 |]
P:B
z2 | B>cd>B e2 e2 | B>c (3dcB e2 B>c | d2 d2 c2 c2 | B>c B>A F2 G>F |
E2 B2 B>G (3AGF | E2 E2 d3 e | d3 B A3 F | E2 E2 E2 |]

